X: 36442
T: Seaweed On The Yellow Cliff
R: strathspey
M: 4/4
K: Adorian
|:e<AA>f g>fg>f|e<AA>c B<GB>d|
e<AA>f g>fg>d|1 (3efe (3dcB A>gf>g:|2 (3efe (3dcB A>Bc>d||
|:e<aa>^g a>f=g>e|d<BG>A B<GB>d|
(3efg (3fga g>fg>d|1 (3efe (3dcB A>Bc>d:|2 (3efe (3dcB A4||

